fs/math_formula_16_filled.svg

<svg viewBox="0 0 16 16" fill="none" xmlns="http://www.w3.org/2000/svg" height="1em" width="1em">
  <path d="M8.7529 1.50158C7.07029 0.239622 4.65871 1.34666 4.51877 3.44526L4.44846 4.49957H3.75C3.33579 4.49957 3 4.83536 3 5.24957C3 5.66379 3.33579 5.99957 3.75 5.99957H4.34844L3.92876 12.2933C3.87337 13.1239 3.0367 13.6694 2.25432 13.3848L2.00653 13.2947C1.61726 13.1532 1.18693 13.354 1.04537 13.7432C0.903801 14.1325 1.10461 14.5628 1.49388 14.7044L1.74166 14.7945C3.4629 15.4205 5.30357 14.2205 5.42543 12.3931L5.85177 5.99957H7.25C7.66421 5.99957 8 5.66379 8 5.24957C8 4.83536 7.66421 4.49957 7.25 4.49957H5.9518L6.01545 3.54506C6.07617 2.63435 7.12271 2.15394 7.8529 2.70158L8.0502 2.84956C8.38158 3.09809 8.85168 3.03093 9.1002 2.69956C9.34873 2.36819 9.28157 1.89809 8.9502 1.64956L8.7529 1.50158Z" fill="#212121"/>
  <path d="M9.63639 7.66517C9.12859 6.83999 7.98337 6.70553 7.29825 7.39065L6.96967 7.71923C6.67678 8.01212 6.67678 8.487 6.96967 8.77989C7.26256 9.07278 7.73744 9.07278 8.03033 8.77989L8.35891 8.45131L9.55083 10.3882L7.21978 12.7192C6.92689 13.0121 6.92689 13.487 7.21978 13.7799C7.51268 14.0728 7.98755 14.0728 8.28044 13.7799L10.359 11.7014L11.3636 13.334C11.8714 14.1591 13.0166 14.2936 13.7018 13.6085L14.0303 13.2799C14.3232 12.987 14.3232 12.5121 14.0303 12.2192C13.7374 11.9263 13.2626 11.9263 12.9697 12.2192L12.6411 12.5478L11.4493 10.6111L13.7804 8.2799C14.0733 7.98701 14.0733 7.51214 13.7804 7.21924C13.4875 6.92635 13.0127 6.92635 12.7198 7.21924L10.6411 9.29788L9.63639 7.66517Z" fill="#212121"/>
</svg>

<svg viewBox="0 0 16 16" fill="none" xmlns="http://www.w3.org/2000/svg" height="1em" width="1em">
  <path d="M8.753 1.502C7.07.24 4.659 1.347 4.519 3.445L4.449 4.5H3.75a.75.75 0 0 0 0 1.5h.598l-.42 6.293a1.25 1.25 0 0 1-1.674 1.092l-.247-.09a.75.75 0 0 0-.513 1.41l.248.09a2.75 2.75 0 0 0 3.683-2.402L5.852 6H7.25a.75.75 0 1 0 0-1.5H5.952l.063-.955a1.15 1.15 0 0 1 1.838-.843l.197.148a.75.75 0 1 0 .9-1.2l-.197-.148Z" fill="#212121"/>
  <path d="M9.636 7.665a1.5 1.5 0 0 0-2.338-.274l-.328.328a.75.75 0 0 0 1.06 1.06l.329-.328 1.192 1.937L7.22 12.72a.75.75 0 0 0 1.06 1.06l2.079-2.078 1.005 1.633a1.5 1.5 0 0 0 2.338.274l.328-.328a.75.75 0 0 0-1.06-1.06l-.329.328-1.192-1.937L13.78 8.28a.75.75 0 0 0-1.06-1.06l-2.08 2.077-1.004-1.632Z" fill="#212121"/>
</svg>
